icons/midnadark/actions/24/charcoaltool.svg

<?xml version="1.0" encoding="UTF-8" standalone="no"?>
<!-- Created with Inkscape (http://www.inkscape.org/) -->

<svg
   xmlns:dc="http://purl.org/dc/elements/1.1/"
   xmlns:cc="http://creativecommons.org/ns#"
   xmlns:rdf="http://www.w3.org/1999/02/22-rdf-syntax-ns#"
   xmlns:svg="http://www.w3.org/2000/svg"
   xmlns="http://www.w3.org/2000/svg"
   xmlns:xlink="http://www.w3.org/1999/xlink"
   xmlns:sodipodi="http://sodipodi.sourceforge.net/DTD/sodipodi-0.dtd"
   xmlns:inkscape="http://www.inkscape.org/namespaces/inkscape"
   width="22"
   height="22"
   id="svg4355"
   version="1.1"
   inkscape:version="0.91 r13725"
   sodipodi:docname="charcoaltool.svg">
  <defs
     id="defs4357">
    <clipPath
       id="clipPath4160"
       clipPathUnits="userSpaceOnUse">
      <rect
         y="1023.3622"
         x="7"
         height="1"
         width="1"
         id="rect4162"
         style="opacity:1;fill:#f2f2f2;fill-opacity:1;stroke:none;stroke-opacity:1" />
    </clipPath>
    <linearGradient
       y2="542.21368"
       x2="429.89719"
       y1="537.27063"
       x1="429.91379"
       gradientTransform="matrix(0.70710678,-0.70710678,0.70710678,0.70710678,-677.53317,-69.84624)"
       gradientUnits="userSpaceOnUse"
       id="linearGradient4459"
       xlink:href="#linearGradient4450"
       inkscape:collect="always" />
    <linearGradient
       id="linearGradient4450">
      <stop
         id="stop4452"
         offset="0"
         style="stop-color:#4d4d4d;stop-opacity:1;" />
      <stop
         id="stop4454"
         offset="1"
         style="stop-color:#b3b3b3;stop-opacity:1;" />
    </linearGradient>
    <linearGradient
       inkscape:collect="always"
       xlink:href="#linearGradient4450"
       id="linearGradient4519"
       gradientUnits="userSpaceOnUse"
       gradientTransform="matrix(0.70710678,-0.70710678,0.70710678,0.70710678,-675.53317,-63.84622)"
       x1="429.91379"
       y1="537.27063"
       x2="429.89719"
       y2="542.21368" />
    <linearGradient
       inkscape:collect="always"
       xlink:href="#linearGradient4450"
       id="linearGradient4519-1"
       gradientUnits="userSpaceOnUse"
       gradientTransform="matrix(0.70710678,-0.70710678,0.70710678,0.70710678,-676.53317,965.51598)"
       x1="429.91379"
       y1="537.27063"
       x2="429.89719"
       y2="542.21368" />
    <linearGradient
       inkscape:collect="always"
       xlink:href="#linearGradient4450"
       id="linearGradient3039"
       gradientUnits="userSpaceOnUse"
       gradientTransform="matrix(0.70710678,-0.70710678,0.70710678,0.70710678,-672.53317,961.516)"
       x1="429.91379"
       y1="537.27063"
       x2="429.89719"
       y2="542.21368" />
  </defs>
  <sodipodi:namedview
     id="base"
     pagecolor="#ffffff"
     bordercolor="#666666"
     borderopacity="1.0"
     inkscape:pageopacity="0.0"
     inkscape:pageshadow="2"
     inkscape:zoom="11.707099"
     inkscape:cx="5.655685"
     inkscape:cy="12.585195"
     inkscape:document-units="px"
     inkscape:current-layer="layer1"
     showgrid="true"
     width="0px"
     height="0px"
     fit-margin-top="0"
     fit-margin-left="0"
     fit-margin-right="0"
     fit-margin-bottom="0"
     inkscape:window-width="1366"
     inkscape:window-height="709"
     inkscape:window-x="-4"
     inkscape:window-y="0"
     inkscape:window-maximized="1"
     inkscape:showpageshadow="false"
     inkscape:snap-bbox="true"
     inkscape:snap-global="true"
     inkscape:object-nodes="true"
     showguides="true"
     inkscape:guide-bbox="true">
    <inkscape:grid
       type="xygrid"
       id="grid4114" />
    <sodipodi:guide
       position="2,13"
       orientation="18,0"
       id="guide4120" />
    <sodipodi:guide
       position="2.0000011,1.9999962"
       orientation="0,18"
       id="guide4122" />
    <sodipodi:guide
       position="20.000001,1.9999962"
       orientation="-18,0"
       id="guide4124" />
    <sodipodi:guide
       position="3,6"
       orientation="16,0"
       id="guide4128" />
    <sodipodi:guide
       position="3.0000011,2.9999962"
       orientation="0,16"
       id="guide4130" />
    <sodipodi:guide
       position="6,19"
       orientation="0,-16"
       id="guide4134" />
    <sodipodi:guide
       position="19,11"
       orientation="1,0"
       id="guide4431" />
  </sodipodi:namedview>
  <metadata
     id="metadata4360">
    <rdf:RDF>
      <cc:Work
         rdf:about="">
        <dc:format>image/svg+xml</dc:format>
        <dc:type
           rdf:resource="http://purl.org/dc/dcmitype/StillImage" />
        <dc:title></dc:title>
      </cc:Work>
    </rdf:RDF>
  </metadata>
  <g
     inkscape:label="Capa 1"
     inkscape:groupmode="layer"
     id="layer1"
     transform="translate(-544.57141,-742.93359)">
    <rect
       style="fill:#4d4d4d;fill-opacity:1;stroke:none"
       id="rect4035"
       width="0"
       height="10.999983"
       x="507.10324"
       y="747.55408" />
    <rect
       style="fill:#4d4d4d;fill-opacity:1;stroke:none"
       id="rect4035-5"
       width="0"
       height="10.999983"
       x="525.14404"
       y="745.50281" />
    <rect
       style="fill:#4d4d4d;fill-opacity:1;stroke:none"
       id="rect4035-8"
       width="0"
       height="10.999983"
       x="507.10324"
       y="747.55408" />
    <rect
       style="fill:#4d4d4d;fill-opacity:1;stroke:none"
       id="rect4035-59"
       width="0"
       height="10.999983"
       x="507.10324"
       y="747.55408" />
    <rect
       style="fill:#4d4d4d;fill-opacity:1;stroke:none"
       id="rect4035-6"
       width="0"
       height="10.999983"
       x="499.7951"
       y="742.71948" />
    <rect
       style="fill:#4d4d4d;fill-opacity:1;stroke:none"
       id="rect4035-5-1"
       width="0"
       height="10.999983"
       x="517.83588"
       y="740.66809" />
    <rect
       style="fill:#4d4d4d;fill-opacity:1;stroke:none"
       id="rect4035-8-3"
       width="0"
       height="10.999983"
       x="499.7951"
       y="742.71948" />
    <rect
       style="fill:#4d4d4d;fill-opacity:1;stroke:none"
       id="rect4035-59-4"
       width="0"
       height="10.999983"
       x="499.7951"
       y="742.71948" />
    <rect
       style="fill:#4d4d4d;fill-opacity:1;stroke:none"
       id="rect4035-1"
       width="0"
       height="10.999983"
       x="505.81027"
       y="746.93567" />
    <rect
       style="fill:#4d4d4d;fill-opacity:1;stroke:none"
       id="rect4035-5-0"
       width="0"
       height="10.999983"
       x="523.85107"
       y="744.8844" />
    <rect
       style="fill:#4d4d4d;fill-opacity:1;stroke:none"
       id="rect4035-8-1"
       width="0"
       height="10.999983"
       x="505.81027"
       y="746.93567" />
    <rect
       style="fill:#4d4d4d;fill-opacity:1;stroke:none"
       id="rect4035-59-1"
       width="0"
       height="10.999983"
       x="505.81027"
       y="746.93567" />
    <rect
       y="747.55408"
       x="507.10324"
       height="10.999983"
       width="0"
       id="rect4035-7"
       style="fill:#4d4d4d;fill-opacity:1;stroke:none" />
    <rect
       y="745.50281"
       x="525.14404"
       height="10.999983"
       width="0"
       id="rect4035-5-7"
       style="fill:#4d4d4d;fill-opacity:1;stroke:none" />
    <rect
       y="747.55408"
       x="507.10324"
       height="10.999983"
       width="0"
       id="rect4035-8-16"
       style="fill:#4d4d4d;fill-opacity:1;stroke:none" />
    <rect
       y="747.55408"
       x="507.10324"
       height="10.999983"
       width="0"
       id="rect4035-59-18"
       style="fill:#4d4d4d;fill-opacity:1;stroke:none" />
    <rect
       y="742.71948"
       x="499.7951"
       height="10.999983"
       width="0"
       id="rect4035-6-5"
       style="fill:#4d4d4d;fill-opacity:1;stroke:none" />
    <rect
       y="740.66809"
       x="517.83588"
       height="10.999983"
       width="0"
       id="rect4035-5-1-8"
       style="fill:#4d4d4d;fill-opacity:1;stroke:none" />
    <rect
       y="742.71948"
       x="499.7951"
       height="10.999983"
       width="0"
       id="rect4035-8-3-8"
       style="fill:#4d4d4d;fill-opacity:1;stroke:none" />
    <rect
       y="742.71948"
       x="499.7951"
       height="10.999983"
       width="0"
       id="rect4035-59-4-7"
       style="fill:#4d4d4d;fill-opacity:1;stroke:none" />
    <rect
       y="746.93567"
       x="505.81027"
       height="10.999983"
       width="0"
       id="rect4035-1-7"
       style="fill:#4d4d4d;fill-opacity:1;stroke:none" />
    <rect
       y="744.8844"
       x="523.85107"
       height="10.999983"
       width="0"
       id="rect4035-5-0-8"
       style="fill:#4d4d4d;fill-opacity:1;stroke:none" />
    <rect
       y="746.93567"
       x="505.81027"
       height="10.999983"
       width="0"
       id="rect4035-8-1-0"
       style="fill:#4d4d4d;fill-opacity:1;stroke:none" />
    <rect
       y="746.93567"
       x="505.81027"
       height="10.999983"
       width="0"
       id="rect4035-59-1-3"
       style="fill:#4d4d4d;fill-opacity:1;stroke:none" />
    <rect
       y="750.93359"
       x="504.57141"
       height="10.999983"
       width="0"
       id="rect4035-0"
       style="fill:#4d4d4d;fill-opacity:1;stroke:none" />
    <rect
       y="748.88232"
       x="522.61218"
       height="10.999983"
       width="0"
       id="rect4035-5-5"
       style="fill:#4d4d4d;fill-opacity:1;stroke:none" />
    <rect
       y="750.93359"
       x="504.57141"
       height="10.999983"
       width="0"
       id="rect4035-8-6"
       style="fill:#4d4d4d;fill-opacity:1;stroke:none" />
    <rect
       y="750.93359"
       x="504.57141"
       height="10.999983"
       width="0"
       id="rect4035-59-11"
       style="fill:#4d4d4d;fill-opacity:1;stroke:none" />
    <rect
       y="747.29968"
       x="488.58331"
       height="10.999983"
       width="0"
       id="rect4035-9"
       style="fill:#4d4d4d;fill-opacity:1;stroke:none" />
    <rect
       y="745.24841"
       x="506.62408"
       height="10.999983"
       width="0"
       id="rect4035-5-8"
       style="fill:#4d4d4d;fill-opacity:1;stroke:none" />
    <rect
       y="747.29968"
       x="488.58331"
       height="10.999983"
       width="0"
       id="rect4035-8-0"
       style="fill:#4d4d4d;fill-opacity:1;stroke:none" />
    <rect
       y="747.29968"
       x="488.58331"
       height="10.999983"
       width="0"
       id="rect4035-59-1-8"
       style="fill:#4d4d4d;fill-opacity:1;stroke:none" />
    <rect
       style="fill:#4d4d4d;fill-opacity:1;stroke:none"
       id="rect4035-3"
       width="0"
       height="10.999983"
       x="507.10324"
       y="747.55408" />
    <rect
       style="fill:#4d4d4d;fill-opacity:1;stroke:none"
       id="rect4035-5-2"
       width="0"
       height="10.999983"
       x="525.14404"
       y="745.50281" />
    <rect
       style="fill:#4d4d4d;fill-opacity:1;stroke:none"
       id="rect4035-8-7"
       width="0"
       height="10.999983"
       x="507.10324"
       y="747.55408" />
    <rect
       style="fill:#4d4d4d;fill-opacity:1;stroke:none"
       id="rect4035-59-43"
       width="0"
       height="10.999983"
       x="507.10324"
       y="747.55408" />
    <rect
       style="fill:#4d4d4d;fill-opacity:1;stroke:none"
       id="rect4035-6-2"
       width="0"
       height="10.999983"
       x="499.7951"
       y="742.71948" />
    <rect
       style="fill:#4d4d4d;fill-opacity:1;stroke:none"
       id="rect4035-5-1-6"
       width="0"
       height="10.999983"
       x="517.83588"
       y="740.66809" />
    <rect
       style="fill:#4d4d4d;fill-opacity:1;stroke:none"
       id="rect4035-8-3-4"
       width="0"
       height="10.999983"
       x="499.7951"
       y="742.71948" />
    <rect
       style="fill:#4d4d4d;fill-opacity:1;stroke:none"
       id="rect4035-59-4-8"
       width="0"
       height="10.999983"
       x="499.7951"
       y="742.71948" />
    <rect
       style="fill:#4d4d4d;fill-opacity:1;stroke:none"
       id="rect4035-1-8"
       width="0"
       height="10.999983"
       x="505.81027"
       y="746.93567" />
    <rect
       style="fill:#4d4d4d;fill-opacity:1;stroke:none"
       id="rect4035-5-0-0"
       width="0"
       height="10.999983"
       x="523.85107"
       y="744.8844" />
    <rect
       style="fill:#4d4d4d;fill-opacity:1;stroke:none"
       id="rect4035-8-1-3"
       width="0"
       height="10.999983"
       x="505.81027"
       y="746.93567" />
    <rect
       style="fill:#4d4d4d;fill-opacity:1;stroke:none"
       id="rect4035-59-1-1"
       width="0"
       height="10.999983"
       x="505.81027"
       y="746.93567" />
    <g
       transform="translate(544.57141,-287.42861)"
       id="layer1-2"
       inkscape:label="Capa 1">
      <rect
         y="1034.9827"
         x="-37.468155"
         height="10.999983"
         width="0"
         id="rect4035-38"
         style="fill:#4d4d4d;fill-opacity:1;stroke:none" />
      <rect
         y="1032.9314"
         x="-19.427383"
         height="10.999983"
         width="0"
         id="rect4035-5-82"
         style="fill:#4d4d4d;fill-opacity:1;stroke:none" />
      <rect
         y="1034.9827"
         x="-37.468155"
         height="10.999983"
         width="0"
         id="rect4035-8-4"
         style="fill:#4d4d4d;fill-opacity:1;stroke:none" />
      <rect
         y="1034.9827"
         x="-37.468155"
         height="10.999983"
         width="0"
         id="rect4035-59-9"
         style="fill:#4d4d4d;fill-opacity:1;stroke:none" />
      <rect
         y="1030.1481"
         x="-44.776306"
         height="10.999983"
         width="0"
         id="rect4035-6-1"
         style="fill:#4d4d4d;fill-opacity:1;stroke:none" />
      <rect
         y="1028.0967"
         x="-26.735535"
         height="10.999983"
         width="0"
         id="rect4035-5-1-0"
         style="fill:#4d4d4d;fill-opacity:1;stroke:none" />
      <rect
         y="1030.1481"
         x="-44.776306"
         height="10.999983"
         width="0"
         id="rect4035-8-3-89"
         style="fill:#4d4d4d;fill-opacity:1;stroke:none" />
      <rect
         y="1030.1481"
         x="-44.776306"
         height="10.999983"
         width="0"
         id="rect4035-59-4-9"
         style="fill:#4d4d4d;fill-opacity:1;stroke:none" />
      <rect
         y="1034.3643"
         x="-38.761135"
         height="10.999983"
         width="0"
         id="rect4035-1-2"
         style="fill:#4d4d4d;fill-opacity:1;stroke:none" />
      <rect
         y="1032.313"
         x="-20.720364"
         height="10.999983"
         width="0"
         id="rect4035-5-0-6"
         style="fill:#4d4d4d;fill-opacity:1;stroke:none" />
      <rect
         y="1034.3643"
         x="-38.761135"
         height="10.999983"
         width="0"
         id="rect4035-8-1-1"
         style="fill:#4d4d4d;fill-opacity:1;stroke:none" />
      <rect
         y="1034.3643"
         x="-38.761135"
         height="10.999983"
         width="0"
         id="rect4035-59-1-7"
         style="fill:#4d4d4d;fill-opacity:1;stroke:none" />
      <g
         inkscape:label="Capa 1"
         id="layer1-1"
         transform="translate(-40.1841,1.16606)" />
      <path
         id="rect4132"
         transform="translate(-1,1029.3622)"
         d="m 16.40625,4 -4,4 L 11.3125,9.09375 8,12.375 8,12.40625 7.3125,13.09375 4,16.375 4,18 l 2,2 1.625,0 3.96875,-4 1.125,-1.125 L 16,11.59375 16.71875,10.875 20,7.59375 20,6 18,4 16.40625,4 Z"
         style="fill:url(#linearGradient4519);fill-opacity:1;stroke:none"
         inkscape:connector-curvature="0" />
    </g>
  </g>
</svg>

<svg xmlns="http://www.w3.org/2000/svg" viewBox="0 0 22 22"><defs><clipPath><path fill="#f2f2f2" d="m7 1023.36h1v1h-1z"/></clipPath><linearGradient id="0" gradientUnits="userSpaceOnUse" x1="8.369" y1="12.07" x2="11.853" y2="15.574"><stop stop-color="#4d4d4d"/><stop offset="1" stop-color="#b3b3b3"/></linearGradient></defs><path transform="translate(-1-1)" d="m16.406 4l-4 4-1.094 1.094-3.313 3.281v.031l-.688.688-3.313 3.281v1.625l2 2h1.625l3.969-4 1.125-1.125 3.281-3.281.719-.719 3.281-3.281v-1.594l-2-2h-1.594" fill="url(#0)"/></svg>
